X: 143
T:Caddam Woods
M:C
L:1/8
R:Reel
C:Adam Rennie & John Y Cameron
K:A
"A"e/2e/2e/2e/2 ^de f-e c2|E/2E/2E/2E/2 Ac"E7"f-e d2|d/2d/2d/2d/2 cd g-f
 "E7"d2|!
1(f>e)(db) "A"(fe) c2:|2 "E7"g/2f/2e/2d/2 cB "A"A2 A2||"A"e/2e/2e/2e/2 c
c e/2e/2e/2e/2 cc|!
e2 (f>e) "E7" (ed) d2|d/2e/2d/2c/2 B B d/2e/2d/2c/2 B B|(g>f)(g>f) f-ef-
e|!
"Aee e/2f/2e/2d/2 "A:d-c c2|e2 (f>e) "E7"e-d d2|dd d/2e/2d/2c/2 BB B2||"
A"e/2/e/2e/2e/2 fg "A"a2 a2||
% <A name="D1X144">
